X: 74
T:Pretty Little Widder
% Nottingham Music Database
S:Adatpted by Fi Maurice-Smith, via PR
M:2/4
L:1/4
K:D
f/4g/4|"A"a/2a/4b/4 a/4f/4e/4d/4|"G"g/2g/4a/4 g/4e/4d/2|"A"e/2e/4f/4 e/2E/4f/4\
|"E7"e/4c/4B/4A/4 "A"F/4A/4A/2|
"A"a/2a/4b/4 a/4f/4e/4d/4|"G"g/2g/4a/4 g/4e/4d/2|"A"e/2e/4f/4 e/2E/4f/4|\
"E7"e/4c/4B/4A/4 "A"F/4A/4A/2::
"A"c/2A/4c/4 "D"B/4A/4F/4A/4|"A"c/2A/4c/4 "D"B/4A/4F/4A/4|\
"A"c/2c/2 c/4B/4A/4F/4|"E7"E/4C/4E/4F/4 "A"E/4F/4A/2|
"A"c/2A/4c/4 "G"B/4c/4d/4B/4|"A"c/2A/4c/4 "G"B/4c/4d/4B/4|\
"A"c/2c/2 c/4B/4A/4F/4|"E7"E/2F/2 "A"A:|<end>
<start>
